docs/.gitbook/assets/icon-duplicate-16@dark.svg

<svg width="32" height="32" viewBox="0 0 16 16" fill="none" xmlns="http://www.w3.org/2000/svg">
<rect x="0" y="0" width="16" height="16" fill="#181c1f"/>
<path fill-rule="evenodd" clip-rule="evenodd" d="M4 3.75C4 2.23122 5.23122 1 6.75 1H12.25C13.7688 1 15 2.23122 15 3.75V9.25C15 10.7688 13.7688 12 12.25 12H12V12.25C12 13.7688 10.7688 15 9.25 15H3.75C2.23122 15 1 13.7688 1 12.25V6.75C1 5.23122 2.23122 4 3.75 4H4V3.75ZM4.75 5.5H3.75C3.05964 5.5 2.5 6.05964 2.5 6.75V12.25C2.5 12.9404 3.05964 13.5 3.75 13.5H9.25C9.94036 13.5 10.5 12.9404 10.5 12.25V11.25V6.75C10.5 6.05964 9.94036 5.5 9.25 5.5H4.75ZM12 10.5V6.75C12 5.23122 10.7688 4 9.25 4H5.5V3.75C5.5 3.05964 6.05964 2.5 6.75 2.5H12.25C12.9404 2.5 13.5 3.05964 13.5 3.75V9.25C13.5 9.94036 12.9404 10.5 12.25 10.5H12ZM6.5 7C6.91421 7 7.25 7.33579 7.25 7.75V8.75H8.25C8.66421 8.75 9 9.08579 9 9.5C9 9.91421 8.66421 10.25 8.25 10.25H7.25V11.25C7.25 11.6642 6.91421 12 6.5 12C6.08579 12 5.75 11.6642 5.75 11.25V10.25H4.75C4.33579 10.25 4 9.91421 4 9.5C4 9.08579 4.33579 8.75 4.75 8.75H5.75V7.75C5.75 7.33579 6.08579 7 6.5 7Z" fill="#fff"/>
</svg>

<svg xmlns="http://www.w3.org/2000/svg" width="32" height="32" fill="none" viewBox="0 0 16 16"><path fill="#181c1f" d="M0 0h16v16H0z"/><path fill="#fff" fill-rule="evenodd" d="M4 3.75A2.75 2.75 0 0 1 6.75 1h5.5A2.75 2.75 0 0 1 15 3.75v5.5A2.75 2.75 0 0 1 12.25 12H12v.25A2.75 2.75 0 0 1 9.25 15h-5.5A2.75 2.75 0 0 1 1 12.25v-5.5A2.75 2.75 0 0 1 3.75 4H4zm.75 1.75h-1c-.69 0-1.25.56-1.25 1.25v5.5c0 .69.56 1.25 1.25 1.25h5.5c.69 0 1.25-.56 1.25-1.25v-5.5c0-.69-.56-1.25-1.25-1.25zm7.25 5V6.75A2.75 2.75 0 0 0 9.25 4H5.5v-.25c0-.69.56-1.25 1.25-1.25h5.5c.69 0 1.25.56 1.25 1.25v5.5c0 .69-.56 1.25-1.25 1.25zM6.5 7a.75.75 0 0 1 .75.75v1h1a.75.75 0 0 1 0 1.5h-1v1a.75.75 0 0 1-1.5 0v-1h-1a.75.75 0 0 1 0-1.5h1v-1A.75.75 0 0 1 6.5 7" clip-rule="evenodd"/></svg>
